images/3234081.svg

<?xml version="1.0" encoding="UTF-8"?>
<svg xmlns="http://www.w3.org/2000/svg" xmlns:xlink="http://www.w3.org/1999/xlink" width="300pt" height="300pt" viewBox="0 0 300 300" version="1.1">
<defs>
<g>
<symbol overflow="visible" id="glyph0-0">
<path style="stroke:none;" d="M 0.59375 2.125 L 0.59375 -8.46875 L 6.59375 -8.46875 L 6.59375 2.125 Z M 1.265625 1.453125 L 5.9375 1.453125 L 5.9375 -7.78125 L 1.265625 -7.78125 Z M 1.265625 1.453125 "/>
</symbol>
<symbol overflow="visible" id="glyph0-1">
<path style="stroke:none;" d="M 4.734375 -7.953125 C 3.867188 -7.953125 3.179688 -7.628906 2.671875 -6.984375 C 2.171875 -6.347656 1.921875 -5.472656 1.921875 -4.359375 C 1.921875 -3.265625 2.171875 -2.394531 2.671875 -1.75 C 3.179688 -1.113281 3.867188 -0.796875 4.734375 -0.796875 C 5.585938 -0.796875 6.265625 -1.113281 6.765625 -1.75 C 7.273438 -2.394531 7.53125 -3.265625 7.53125 -4.359375 C 7.53125 -5.472656 7.273438 -6.347656 6.765625 -6.984375 C 6.265625 -7.628906 5.585938 -7.953125 4.734375 -7.953125 Z M 4.734375 -8.90625 C 5.953125 -8.90625 6.925781 -8.492188 7.65625 -7.671875 C 8.394531 -6.847656 8.765625 -5.742188 8.765625 -4.359375 C 8.765625 -2.984375 8.394531 -1.882812 7.65625 -1.0625 C 6.925781 -0.238281 5.953125 0.171875 4.734375 0.171875 C 3.503906 0.171875 2.519531 -0.238281 1.78125 -1.0625 C 1.039062 -1.882812 0.671875 -2.984375 0.671875 -4.359375 C 0.671875 -5.742188 1.039062 -6.847656 1.78125 -7.671875 C 2.519531 -8.492188 3.503906 -8.90625 4.734375 -8.90625 Z M 4.734375 -8.90625 "/>
</symbol>
<symbol overflow="visible" id="glyph0-2">
<path style="stroke:none;" d="M 1.171875 -8.75 L 2.765625 -8.75 L 6.65625 -1.4375 L 6.65625 -8.75 L 7.796875 -8.75 L 7.796875 0 L 6.203125 0 L 2.328125 -7.3125 L 2.328125 0 L 1.171875 0 Z M 1.171875 -8.75 "/>
</symbol>
<symbol overflow="visible" id="glyph0-3">
<path style="stroke:none;" d="M 1.171875 -8.75 L 2.359375 -8.75 L 2.359375 -5.15625 L 6.65625 -5.15625 L 6.65625 -8.75 L 7.84375 -8.75 L 7.84375 0 L 6.65625 0 L 6.65625 -4.171875 L 2.359375 -4.171875 L 2.359375 0 L 1.171875 0 Z M 1.171875 -8.75 "/>
</symbol>
</g>
</defs>
<g id="surface34861">
<rect x="0" y="0" width="300" height="300" style="fill:rgb(100%,100%,100%);fill-opacity:1;stroke:none;"/>
<path style="fill:none;stroke-width:1.2;stroke-linecap:butt;stroke-linejoin:miter;stroke:rgb(0%,0%,0%);stroke-opacity:1;stroke-miterlimit:10;" d="M 102.070312 72.695312 L 92.519531 83.75 "/>
<path style="fill:none;stroke-width:1.2;stroke-linecap:butt;stroke-linejoin:miter;stroke:rgb(100%,0%,0%);stroke-opacity:1;stroke-miterlimit:10;" d="M 92.519531 83.75 L 82.964844 94.804688 "/>
<path style="fill:none;stroke-width:1.2;stroke-linecap:butt;stroke-linejoin:miter;stroke:rgb(100%,0%,0%);stroke-opacity:1;stroke-miterlimit:10;" d="M 82.964844 94.804688 L 87.765625 108.601562 "/>
<path style="fill:none;stroke-width:1.2;stroke-linecap:butt;stroke-linejoin:miter;stroke:rgb(0%,0%,0%);stroke-opacity:1;stroke-miterlimit:10;" d="M 87.765625 108.601562 L 92.5625 122.402344 "/>
<path style=" stroke:none;fill-rule:nonzero;fill:rgb(100%,100%,100%);fill-opacity:1;" d="M 77.964844 87.804688 L 87.964844 87.804688 L 87.964844 101.804688 L 77.964844 101.804688 Z M 77.964844 87.804688 "/>
<g style="fill:rgb(100%,0%,0%);fill-opacity:1;">
  <use xlink:href="#glyph0-1" x="77.964844" y="98.943359"/>
</g>
<path style="fill:none;stroke-width:1.2;stroke-linecap:butt;stroke-linejoin:miter;stroke:rgb(0%,0%,0%);stroke-opacity:1;stroke-miterlimit:10;" d="M 92.5625 122.402344 L 73.457031 144.511719 "/>
<path style="fill:none;stroke-width:1.2;stroke-linecap:butt;stroke-linejoin:miter;stroke:rgb(0%,0%,0%);stroke-opacity:1;stroke-miterlimit:10;" d="M 73.457031 144.511719 L 78.253906 158.308594 "/>
<path style="fill:none;stroke-width:1.2;stroke-linecap:butt;stroke-linejoin:miter;stroke:rgb(0%,0%,100%);stroke-opacity:1;stroke-miterlimit:10;" d="M 78.253906 158.308594 L 83.050781 172.109375 "/>
<path style="fill:none;stroke-width:1.2;stroke-linecap:butt;stroke-linejoin:miter;stroke:rgb(0%,0%,100%);stroke-opacity:1;stroke-miterlimit:10;" d="M 83.050781 172.109375 L 73.5 183.164062 "/>
<path style="fill:none;stroke-width:1.2;stroke-linecap:butt;stroke-linejoin:miter;stroke:rgb(0%,0%,0%);stroke-opacity:1;stroke-miterlimit:10;" d="M 73.5 183.164062 L 63.949219 194.214844 "/>
<path style="fill:none;stroke-width:1.2;stroke-linecap:butt;stroke-linejoin:miter;stroke:rgb(0%,0%,0%);stroke-opacity:1;stroke-miterlimit:10;" d="M 111.75 177.597656 L 97.402344 174.851562 "/>
<path style="fill:none;stroke-width:1.2;stroke-linecap:butt;stroke-linejoin:miter;stroke:rgb(0%,0%,100%);stroke-opacity:1;stroke-miterlimit:10;" d="M 97.402344 174.851562 L 83.050781 172.109375 "/>
<path style=" stroke:none;fill-rule:nonzero;fill:rgb(100%,100%,100%);fill-opacity:1;" d="M 79.050781 165.109375 L 88.050781 165.109375 L 88.050781 179.109375 L 79.050781 179.109375 Z M 79.050781 165.109375 "/>
<g style="fill:rgb(0%,0%,100%);fill-opacity:1;">
  <use xlink:href="#glyph0-2" x="79.050781" y="176.248047"/>
</g>
<path style="fill:none;stroke-width:1.2;stroke-linecap:butt;stroke-linejoin:miter;stroke:rgb(0%,0%,0%);stroke-opacity:1;stroke-miterlimit:10;" d="M 64.59375 190.839844 L 50.246094 188.09375 "/>
<path style="fill:none;stroke-width:1.2;stroke-linecap:butt;stroke-linejoin:miter;stroke:rgb(100%,0%,0%);stroke-opacity:1;stroke-miterlimit:10;" d="M 50.246094 188.09375 L 35.894531 185.351562 "/>
<path style="fill:none;stroke-width:1.2;stroke-linecap:butt;stroke-linejoin:miter;stroke:rgb(0%,0%,0%);stroke-opacity:1;stroke-miterlimit:10;" d="M 63.300781 197.59375 L 48.953125 194.847656 "/>
<path style="fill:none;stroke-width:1.2;stroke-linecap:butt;stroke-linejoin:miter;stroke:rgb(100%,0%,0%);stroke-opacity:1;stroke-miterlimit:10;" d="M 48.953125 194.847656 L 34.605469 192.101562 "/>
<path style="fill:none;stroke-width:1.2;stroke-linecap:butt;stroke-linejoin:miter;stroke:rgb(0%,0%,0%);stroke-opacity:1;stroke-miterlimit:10;" d="M 63.949219 194.214844 L 73.542969 221.816406 "/>
<path style=" stroke:none;fill-rule:nonzero;fill:rgb(100%,100%,100%);fill-opacity:1;" d="M 25.25 181.726562 L 35.25 181.726562 L 35.25 195.726562 L 25.25 195.726562 Z M 25.25 181.726562 "/>
<g style="fill:rgb(100%,0%,0%);fill-opacity:1;">
  <use xlink:href="#glyph0-1" x="25.25" y="192.865234"/>
</g>
<path style="fill:none;stroke-width:1.2;stroke-linecap:butt;stroke-linejoin:miter;stroke:rgb(0%,0%,0%);stroke-opacity:1;stroke-miterlimit:10;" d="M 73.542969 221.816406 L 87.890625 224.558594 "/>
<path style="fill:none;stroke-width:1.2;stroke-linecap:butt;stroke-linejoin:miter;stroke:rgb(0%,0%,100%);stroke-opacity:1;stroke-miterlimit:10;" d="M 87.890625 224.558594 L 102.242188 227.304688 "/>
<path style="fill:none;stroke-width:1.2;stroke-linecap:butt;stroke-linejoin:miter;stroke:rgb(0%,0%,0%);stroke-opacity:1;stroke-miterlimit:10;" d="M 77.703125 215.613281 L 89.183594 217.808594 "/>
<path style="fill:none;stroke-width:1.2;stroke-linecap:butt;stroke-linejoin:miter;stroke:rgb(0%,0%,100%);stroke-opacity:1;stroke-miterlimit:10;" d="M 89.183594 217.808594 L 100.664062 220.003906 "/>
<path style="fill:none;stroke-width:1.2;stroke-linecap:butt;stroke-linejoin:miter;stroke:rgb(0%,0%,100%);stroke-opacity:1;stroke-miterlimit:10;" d="M 102.242188 227.304688 L 111.792969 216.25 "/>
<path style="fill:none;stroke-width:1.2;stroke-linecap:butt;stroke-linejoin:miter;stroke:rgb(0%,0%,0%);stroke-opacity:1;stroke-miterlimit:10;" d="M 111.792969 216.25 L 121.34375 205.195312 "/>
<path style=" stroke:none;fill-rule:nonzero;fill:rgb(100%,100%,100%);fill-opacity:1;" d="M 98.242188 220.304688 L 107.242188 220.304688 L 107.242188 234.304688 L 98.242188 234.304688 Z M 98.242188 220.304688 "/>
<g style="fill:rgb(0%,0%,100%);fill-opacity:1;">
  <use xlink:href="#glyph0-2" x="98.242188" y="231.443359"/>
</g>
<path style="fill:none;stroke-width:1.2;stroke-linecap:butt;stroke-linejoin:miter;stroke:rgb(0%,0%,0%);stroke-opacity:1;stroke-miterlimit:10;" d="M 121.34375 205.195312 L 150.042969 210.6875 "/>
<path style="fill:none;stroke-width:1.2;stroke-linecap:butt;stroke-linejoin:miter;stroke:rgb(0%,0%,0%);stroke-opacity:1;stroke-miterlimit:10;" d="M 125.507812 198.992188 L 148.464844 203.386719 "/>
<path style="fill:none;stroke-width:1.2;stroke-linecap:butt;stroke-linejoin:miter;stroke:rgb(0%,0%,0%);stroke-opacity:1;stroke-miterlimit:10;" d="M 111.75 177.597656 L 121.34375 205.195312 "/>
<path style="fill:none;stroke-width:1.2;stroke-linecap:butt;stroke-linejoin:miter;stroke:rgb(0%,0%,0%);stroke-opacity:1;stroke-miterlimit:10;" d="M 150.042969 210.6875 L 159.59375 199.632812 "/>
<path style="fill:none;stroke-width:1.2;stroke-linecap:butt;stroke-linejoin:miter;stroke:rgb(0%,0%,100%);stroke-opacity:1;stroke-miterlimit:10;" d="M 159.59375 199.632812 L 169.144531 188.578125 "/>
<path style="fill:none;stroke-width:1.2;stroke-linecap:butt;stroke-linejoin:miter;stroke:rgb(0%,0%,100%);stroke-opacity:1;stroke-miterlimit:10;" d="M 169.144531 188.578125 L 164.347656 174.78125 "/>
<path style="fill:none;stroke-width:1.2;stroke-linecap:butt;stroke-linejoin:miter;stroke:rgb(0%,0%,0%);stroke-opacity:1;stroke-miterlimit:10;" d="M 164.347656 174.78125 L 159.550781 160.980469 "/>
<path style="fill:none;stroke-width:1.2;stroke-linecap:butt;stroke-linejoin:miter;stroke:rgb(0%,0%,100%);stroke-opacity:1;stroke-miterlimit:10;" d="M 161.691406 188.078125 L 157.855469 177.035156 "/>
<path style="fill:none;stroke-width:1.2;stroke-linecap:butt;stroke-linejoin:miter;stroke:rgb(0%,0%,0%);stroke-opacity:1;stroke-miterlimit:10;" d="M 157.855469 177.035156 L 154.015625 165.996094 "/>
<path style=" stroke:none;fill-rule:nonzero;fill:rgb(100%,100%,100%);fill-opacity:1;" d="M 165.144531 181.578125 L 174.144531 181.578125 L 174.144531 195.578125 L 165.144531 195.578125 Z M 165.144531 181.578125 "/>
<g style="fill:rgb(0%,0%,100%);fill-opacity:1;">
  <use xlink:href="#glyph0-2" x="165.144531" y="192.716797"/>
</g>
<path style="fill:none;stroke-width:1.2;stroke-linecap:butt;stroke-linejoin:miter;stroke:rgb(0%,0%,0%);stroke-opacity:1;stroke-miterlimit:10;" d="M 159.550781 160.980469 L 145.203125 158.234375 "/>
<path style="fill:none;stroke-width:1.2;stroke-linecap:butt;stroke-linejoin:miter;stroke:rgb(0%,0%,100%);stroke-opacity:1;stroke-miterlimit:10;" d="M 145.203125 158.234375 L 130.855469 155.488281 "/>
<path style="fill:none;stroke-width:1.2;stroke-linecap:butt;stroke-linejoin:miter;stroke:rgb(0%,0%,0%);stroke-opacity:1;stroke-miterlimit:10;" d="M 159.550781 160.980469 L 169.105469 149.925781 "/>
<path style="fill:none;stroke-width:1.2;stroke-linecap:butt;stroke-linejoin:miter;stroke:rgb(0%,0%,100%);stroke-opacity:1;stroke-miterlimit:10;" d="M 169.105469 149.925781 L 178.65625 138.871094 "/>
<path style="fill:none;stroke-width:1.2;stroke-linecap:butt;stroke-linejoin:miter;stroke:rgb(0%,0%,100%);stroke-opacity:1;stroke-miterlimit:10;" d="M 130.855469 155.488281 L 121.300781 166.542969 "/>
<path style="fill:none;stroke-width:1.2;stroke-linecap:butt;stroke-linejoin:miter;stroke:rgb(0%,0%,0%);stroke-opacity:1;stroke-miterlimit:10;" d="M 121.300781 166.542969 L 111.75 177.597656 "/>
<path style="fill:none;stroke-width:1.2;stroke-linecap:butt;stroke-linejoin:miter;stroke:rgb(0%,0%,100%);stroke-opacity:1;stroke-miterlimit:10;" d="M 134.144531 162.195312 L 126.503906 171.039062 "/>
<path style="fill:none;stroke-width:1.2;stroke-linecap:butt;stroke-linejoin:miter;stroke:rgb(0%,0%,0%);stroke-opacity:1;stroke-miterlimit:10;" d="M 126.503906 171.039062 L 118.863281 179.882812 "/>
<path style=" stroke:none;fill-rule:nonzero;fill:rgb(100%,100%,100%);fill-opacity:1;" d="M 126.855469 148.488281 L 135.855469 148.488281 L 135.855469 162.488281 L 126.855469 162.488281 Z M 126.855469 148.488281 "/>
<g style="fill:rgb(0%,0%,100%);fill-opacity:1;">
  <use xlink:href="#glyph0-2" x="126.855469" y="159.626953"/>
</g>
<path style="fill:none;stroke-width:1.2;stroke-linecap:butt;stroke-linejoin:miter;stroke:rgb(0%,0%,100%);stroke-opacity:1;stroke-miterlimit:10;" d="M 178.65625 138.871094 L 193.003906 141.617188 "/>
<path style="fill:none;stroke-width:1.2;stroke-linecap:butt;stroke-linejoin:miter;stroke:rgb(0%,0%,0%);stroke-opacity:1;stroke-miterlimit:10;" d="M 193.003906 141.617188 L 207.355469 144.363281 "/>
<path style=" stroke:none;fill-rule:nonzero;fill:rgb(100%,100%,100%);fill-opacity:1;" d="M 169.65625 131.871094 L 187.65625 131.871094 L 187.65625 145.871094 L 169.65625 145.871094 Z M 169.65625 131.871094 "/>
<g style="fill:rgb(0%,0%,100%);fill-opacity:1;">
  <use xlink:href="#glyph0-2" x="169.65625" y="143.009766"/>
  <use xlink:href="#glyph0-3" x="178.632812" y="143.009766"/>
</g>
<path style="fill:none;stroke-width:1.2;stroke-linecap:butt;stroke-linejoin:miter;stroke:rgb(0%,0%,0%);stroke-opacity:1;stroke-miterlimit:10;" d="M 207.355469 144.363281 L 216.949219 171.960938 "/>
<path style="fill:none;stroke-width:1.2;stroke-linecap:butt;stroke-linejoin:miter;stroke:rgb(0%,0%,0%);stroke-opacity:1;stroke-miterlimit:10;" d="M 214.808594 144.863281 L 222.484375 166.941406 "/>
<path style="fill:none;stroke-width:1.2;stroke-linecap:butt;stroke-linejoin:miter;stroke:rgb(0%,0%,0%);stroke-opacity:1;stroke-miterlimit:10;" d="M 226.457031 122.253906 L 207.355469 144.363281 "/>
<path style="fill:none;stroke-width:1.2;stroke-linecap:butt;stroke-linejoin:miter;stroke:rgb(0%,0%,0%);stroke-opacity:1;stroke-miterlimit:10;" d="M 216.949219 171.960938 L 245.644531 177.449219 "/>
<path style="fill:none;stroke-width:1.2;stroke-linecap:butt;stroke-linejoin:miter;stroke:rgb(0%,0%,0%);stroke-opacity:1;stroke-miterlimit:10;" d="M 245.644531 177.449219 L 264.75 155.34375 "/>
<path style="fill:none;stroke-width:1.2;stroke-linecap:butt;stroke-linejoin:miter;stroke:rgb(0%,0%,0%);stroke-opacity:1;stroke-miterlimit:10;" d="M 242.355469 170.746094 L 257.636719 153.058594 "/>
<path style="fill:none;stroke-width:1.2;stroke-linecap:butt;stroke-linejoin:miter;stroke:rgb(0%,0%,0%);stroke-opacity:1;stroke-miterlimit:10;" d="M 245.644531 177.449219 L 250.445312 191.25 "/>
<path style="fill:none;stroke-width:1.2;stroke-linecap:butt;stroke-linejoin:miter;stroke:rgb(100%,0%,0%);stroke-opacity:1;stroke-miterlimit:10;" d="M 250.445312 191.25 L 255.242188 205.050781 "/>
<path style="fill:none;stroke-width:1.2;stroke-linecap:butt;stroke-linejoin:miter;stroke:rgb(0%,0%,0%);stroke-opacity:1;stroke-miterlimit:10;" d="M 264.75 155.34375 L 255.15625 127.742188 "/>
<path style="fill:none;stroke-width:1.2;stroke-linecap:butt;stroke-linejoin:miter;stroke:rgb(0%,0%,0%);stroke-opacity:1;stroke-miterlimit:10;" d="M 255.15625 127.742188 L 226.457031 122.253906 "/>
<path style="fill:none;stroke-width:1.2;stroke-linecap:butt;stroke-linejoin:miter;stroke:rgb(0%,0%,0%);stroke-opacity:1;stroke-miterlimit:10;" d="M 250.992188 133.949219 L 228.035156 129.554688 "/>
<path style="fill:none;stroke-width:1.2;stroke-linecap:butt;stroke-linejoin:miter;stroke:rgb(100%,0%,0%);stroke-opacity:1;stroke-miterlimit:10;" d="M 255.242188 205.050781 L 245.6875 216.101562 "/>
<path style="fill:none;stroke-width:1.2;stroke-linecap:butt;stroke-linejoin:miter;stroke:rgb(0%,0%,0%);stroke-opacity:1;stroke-miterlimit:10;" d="M 245.6875 216.101562 L 236.136719 227.15625 "/>
<path style=" stroke:none;fill-rule:nonzero;fill:rgb(100%,100%,100%);fill-opacity:1;" d="M 250.242188 198.050781 L 260.242188 198.050781 L 260.242188 212.050781 L 250.242188 212.050781 Z M 250.242188 198.050781 "/>
<g style="fill:rgb(100%,0%,0%);fill-opacity:1;">
  <use xlink:href="#glyph0-1" x="250.242188" y="209.189453"/>
</g>
</g>
</svg>

<svg xmlns="http://www.w3.org/2000/svg" xmlns:xlink="http://www.w3.org/1999/xlink" width="300pt" height="300pt" viewBox="0 0 300 300"><defs><symbol overflow="visible"><path d="M.594 2.125V-8.47h6V2.126zm.672-.672h4.671V-7.78h-4.67zm0 0"/></symbol><symbol overflow="visible" id="a"><path d="M4.734-7.953c-.867 0-1.554.324-2.062.97-.5.635-.75 1.51-.75 2.624 0 1.094.25 1.965.75 2.61.508.637 1.195.953 2.062.953.852 0 1.532-.316 2.032-.953.507-.645.765-1.516.765-2.61 0-1.113-.257-1.988-.764-2.624-.5-.645-1.18-.97-2.032-.97zm0-.953c1.22 0 2.192.414 2.922 1.234.74.824 1.11 1.93 1.11 3.313 0 1.376-.37 2.477-1.11 3.298C6.926-.24 5.953.17 4.734.17c-1.23 0-2.214-.41-2.953-1.234C1.04-1.882.673-2.984.673-4.36c0-1.382.367-2.488 1.11-3.312.738-.82 1.722-1.234 2.952-1.234zm0 0"/></symbol><symbol overflow="visible" id="b"><path d="M1.172-8.75h1.594l3.89 7.313V-8.75h1.14V0H6.204L2.328-7.313V0H1.172zm0 0"/></symbol><symbol overflow="visible" id="c"><path d="M1.172-8.75H2.36v3.594h4.296V-8.75h1.188V0H6.656v-4.172H2.36V0H1.17zm0 0"/></symbol></defs><g><path fill="#fff" d="M0 0h300v300H0z"/><path d="M102.07 72.695L92.52 83.75" stroke-width="1.2" stroke="#000" stroke-miterlimit="10" fill="none"/><path d="M92.52 83.75l-9.555 11.055M82.965 94.805l4.8 13.797" stroke-width="1.2" stroke="#f00" stroke-miterlimit="10" fill="none"/><path d="M87.766 108.602l4.796 13.8" stroke-width="1.2" stroke="#000" stroke-miterlimit="10" fill="none"/><path d="M77.965 87.805h10v14h-10zm0 0" fill="#fff"/><use xlink:href="#a" x="77.965" y="98.943" fill="#f00"/><path d="M92.563 122.402l-19.106 22.11M73.457 144.512l4.797 13.797" stroke-width="1.2" stroke="#000" stroke-miterlimit="10" fill="none"/><path d="M78.254 158.31l4.797 13.8M83.05 172.11l-9.55 11.054" stroke-width="1.2" stroke="#00f" stroke-miterlimit="10" fill="none"/><path d="M73.5 183.164l-9.55 11.05M111.75 177.598l-14.348-2.746" stroke-width="1.2" stroke="#000" stroke-miterlimit="10" fill="none"/><path d="M97.402 174.852l-14.35-2.743" stroke-width="1.2" stroke="#00f" stroke-miterlimit="10" fill="none"/><path d="M79.05 165.11h9v14h-9zm0 0" fill="#fff"/><use xlink:href="#b" x="79.051" y="176.248" fill="#00f"/><path d="M64.594 190.84l-14.348-2.746" stroke-width="1.2" stroke="#000" stroke-miterlimit="10" fill="none"/><path d="M50.246 188.094l-14.35-2.742" stroke-width="1.2" stroke="#f00" stroke-miterlimit="10" fill="none"/><path d="M63.3 197.594l-14.347-2.746" stroke-width="1.2" stroke="#000" stroke-miterlimit="10" fill="none"/><path d="M48.953 194.848l-14.348-2.746" stroke-width="1.2" stroke="#f00" stroke-miterlimit="10" fill="none"/><path d="M63.95 194.215l9.593 27.6" stroke-width="1.2" stroke="#000" stroke-miterlimit="10" fill="none"/><path d="M25.25 181.727h10v14h-10zm0 0" fill="#fff"/><use xlink:href="#a" x="25.25" y="192.865" fill="#f00"/><path d="M73.543 221.816l14.348 2.743" stroke-width="1.2" stroke="#000" stroke-miterlimit="10" fill="none"/><path d="M87.89 224.56l14.352 2.745" stroke-width="1.2" stroke="#00f" stroke-miterlimit="10" fill="none"/><path d="M77.703 215.613l11.48 2.196" stroke-width="1.2" stroke="#000" stroke-miterlimit="10" fill="none"/><path d="M89.184 217.81l11.48 2.194M102.242 227.305l9.55-11.055" stroke-width="1.2" stroke="#00f" stroke-miterlimit="10" fill="none"/><path d="M111.793 216.25l9.55-11.055" stroke-width="1.2" stroke="#000" stroke-miterlimit="10" fill="none"/><path d="M98.242 220.305h9v14h-9zm0 0" fill="#fff"/><use xlink:href="#b" x="98.242" y="231.443" fill="#00f"/><path d="M121.344 205.195l28.7 5.493M125.508 198.992l22.957 4.395M111.75 177.598l9.594 27.597M150.043 210.688l9.55-11.055" stroke-width="1.2" stroke="#000" stroke-miterlimit="10" fill="none"/><path d="M159.594 199.633l9.55-11.055M169.145 188.578l-4.797-13.797" stroke-width="1.2" stroke="#00f" stroke-miterlimit="10" fill="none"/><path d="M164.348 174.78l-4.797-13.8" stroke-width="1.2" stroke="#000" stroke-miterlimit="10" fill="none"/><path d="M161.69 188.078l-3.835-11.043" stroke-width="1.2" stroke="#00f" stroke-miterlimit="10" fill="none"/><path d="M157.855 177.035l-3.84-11.04" stroke-width="1.2" stroke="#000" stroke-miterlimit="10" fill="none"/><path d="M165.145 181.578h9v14h-9zm0 0" fill="#fff"/><use xlink:href="#b" x="165.145" y="192.717" fill="#00f"/><path d="M159.55 160.98l-14.347-2.746" stroke-width="1.2" stroke="#000" stroke-miterlimit="10" fill="none"/><path d="M145.203 158.234l-14.348-2.746" stroke-width="1.2" stroke="#00f" stroke-miterlimit="10" fill="none"/><path d="M159.55 160.98l9.555-11.054" stroke-width="1.2" stroke="#000" stroke-miterlimit="10" fill="none"/><path d="M169.105 149.926l9.55-11.055M130.855 155.488l-9.554 11.055" stroke-width="1.2" stroke="#00f" stroke-miterlimit="10" fill="none"/><path d="M121.3 166.543l-9.55 11.055" stroke-width="1.2" stroke="#000" stroke-miterlimit="10" fill="none"/><path d="M134.145 162.195l-7.64 8.844" stroke-width="1.2" stroke="#00f" stroke-miterlimit="10" fill="none"/><path d="M126.504 171.04l-7.64 8.843" stroke-width="1.2" stroke="#000" stroke-miterlimit="10" fill="none"/><path d="M126.855 148.488h9v14h-9zm0 0" fill="#fff"/><use xlink:href="#b" x="126.855" y="159.627" fill="#00f"/><path d="M178.656 138.87l14.348 2.747" stroke-width="1.2" stroke="#00f" stroke-miterlimit="10" fill="none"/><path d="M193.004 141.617l14.35 2.746" stroke-width="1.2" stroke="#000" stroke-miterlimit="10" fill="none"/><path d="M169.656 131.87h18v14h-18zm0 0" fill="#fff"/><g fill="#00f"><use xlink:href="#b" x="169.656" y="143.01"/><use xlink:href="#c" x="178.633" y="143.01"/></g><path d="M207.355 144.363l9.594 27.598M214.81 144.863l7.674 22.078M226.457 122.254l-19.102 22.11M216.95 171.96l28.695 5.49M245.645 177.45l19.105-22.106M242.355 170.746l15.282-17.687M245.645 177.45l4.8 13.8" stroke-width="1.2" stroke="#000" stroke-miterlimit="10" fill="none"/><path d="M250.445 191.25l4.797 13.8" stroke-width="1.2" stroke="#f00" stroke-miterlimit="10" fill="none"/><path d="M264.75 155.344l-9.594-27.602M255.156 127.742l-28.7-5.488M250.992 133.95l-22.957-4.395" stroke-width="1.2" stroke="#000" stroke-miterlimit="10" fill="none"/><path d="M255.242 205.05l-9.554 11.052" stroke-width="1.2" stroke="#f00" stroke-miterlimit="10" fill="none"/><path d="M245.688 216.102l-9.55 11.054" stroke-width="1.2" stroke="#000" stroke-miterlimit="10" fill="none"/><path d="M250.242 198.05h10v14h-10zm0 0" fill="#fff"/><use xlink:href="#a" x="250.242" y="209.189" fill="#f00"/></g></svg>
